svgs/solid/face-icicles.svg

<svg xmlns="http://www.w3.org/2000/svg" viewBox="0 0 512 512"><!--! Font Awesome Pro 6.5.1 by @fontawesome - https://fontawesome.com License - https://fontawesome.com/license (Commercial License) Copyright 2023 Fonticons, Inc. --><path d="M512 256c0 8.3-.4 16.6-1.2 24.7c0 .5-.1 1.1-.1 1.6l-14.8 200C494.7 499.1 480.8 512 464 512s-30.7-12.9-31.9-29.6l-2.8-37.9c-5 4.6-10.2 9-15.6 13.2l-11.5 32.9C397.7 503.4 385.6 512 372 512c-11.5 0-21.9-6.1-27.5-15.7C316.9 506.5 287.1 512 256 512c-69.4 0-132.3-27.6-178.4-72.4C71.9 444.9 64.3 448 56 448c-15.6 0-29-11.3-31.6-26.7L6.5 313.4C2.2 294.9 0 275.7 0 256C0 114.6 114.6 0 256 0S512 114.6 512 256zM56 415.8l0 .2 0-.2 20-120.2C78.1 283.3 68.6 272 56 272s-22.1 11.3-20.1 23.7L56 415.8zM344 400l28 80 28-80V360l-56 0v40zm55.3-56c-3.8-22.7-23.6-40-47.3-40h-8v40l55.3 0zM328 344V304H264v40h64zm0 56V360H264v40l32 48 32-48zm-80-96H184v40l64 0V304zm0 56l-64 0v40h64V360zm-80-16V304h-8c-23.8 0-43.5 17.3-47.3 40H168zm0 56V360H112.7c3.8 22.7 23.6 40 47.3 40h8zm40.4-192a32 32 0 1 0 -64 0 32 32 0 1 0 64 0zm128 32a32 32 0 1 0 0-64 32 32 0 1 0 0 64zM464 480l21.8-232.1C487 235.1 476.9 224 464 224s-23 11.1-21.8 23.9L464 480z"/></svg>

<svg xmlns="http://www.w3.org/2000/svg" viewBox="0 0 512 512"><!--! Font Awesome Pro 6.1.1 by @fontawesome - https://fontawesome.com License - https://fontawesome.com/license (Commercial License) Copyright 2022 Fonticons, Inc. --><path d="M512 256C512 264.3 511.6 272.6 510.8 280.7C510.8 281.2 510.8 281.8 510.7 282.3L495.9 482.4C494.7 499.1 480.8 512 464 512C447.2 512 433.3 499.1 432.1 482.4L429.3 444.4C424.3 449 419.1 453.5 413.7 457.7L402.2 490.6C397.7 503.4 385.6 512 372 512C360.5 512 350.1 505.9 344.5 496.3C316.9 506.5 287.1 512 256 512C186.6 512 123.7 484.4 77.6 439.6C71.87 444.9 64.26 448 56 448C40.36 448 27.01 436.7 24.44 421.3L6.455 313.4C2.231 294.9 0 275.7 0 256C0 114.6 114.6 0 256 0C397.4 0 512 114.6 512 256H512zM56 416L76.05 295.7C78.12 283.3 68.56 272 56 272C43.44 272 33.88 283.3 35.95 295.7L56 416zM372 480L400 400V360H344V400L372 480zM352 304H344V344H399.3C395.5 321.3 375.8 304 352 304zM328 344V304H264V344H328zM328 400V360H264V400L296 448L328 400zM184 304V344H248V304H184zM184 360V400H248V360H184zM168 344V304H160C136.2 304 116.5 321.3 112.7 344H168zM168 400V360H112.7C116.5 382.7 136.2 400 160 400H168zM176.4 176C158.7 176 144.4 190.3 144.4 208C144.4 225.7 158.7 240 176.4 240C194 240 208.4 225.7 208.4 208C208.4 190.3 194 176 176.4 176zM336.4 240C354 240 368.4 225.7 368.4 208C368.4 190.3 354 176 336.4 176C318.7 176 304.4 190.3 304.4 208C304.4 225.7 318.7 240 336.4 240zM464 480L485.8 247.9C486.1 235.1 476.9 224 464 224C451.1 224 441 235.1 442.2 247.9L464 480z"/></svg>
